X:50
T: Zhi shoujin
N: C0067
O: China, bei Qinghai, Osten
S: I, 260]
R: Xiaodiao, Mengjiangn diao. Fun Shenghuo]
M: 2/4
L: 1/16
K: F
c2cAc4 | cdf4df | c2dfdcAG | F2GAG2GA | c2dfdcAG | F2GAG4
c2GAc2c2 | c2CDF2G2 | A2AcFGFD | C4C4
F2FFD2F2 | G2A2G3A
c2GAc4 | c2CDF3G | A2AcFGFD | C4C4

